X: 10513
T: JIG
C: Composed by Alex. Deas
R: jig
B: K\"ohler's Violin Repository, v.1, 1885 p.51 #3
F: http://www.archive.org/details/klersviolinrepos01edin
Z: 2011 John Chambers <jc:trillian.mit.edu>
M: 6/8
L: 1/8
K: G
|:\
vDB,D GBd | cBA GAB | ced cBA | BGA BGE |\
DB,D GBd | cBA GAB | ced cBA |[1BGG (G2E) :|[2 BGG G2 ||
|: ud |\
def gag | bef gdB | dba bef | gdA BGE |\
DB,D GBd | cBA GAB | ced cBA | BGG G2 :|

%%sep 2 1 500

